X: 336
U:~=!turn!
M:C
L:1/8
K:D
(AG) | FDFA dfaf | (gf)(ed) (dc)(BA) | GBGB FAFA | EFGA (GF)ED | FDFA dfaf |
(gf)(ed) (dc)(BA) | dfaf bgec | d2 f2 d2 :: A2 | dfdf cece | BcdB {/c}(BA)(GF) |


